X: 1
T:Alabama Rick's
M:6/8
L:1/8
Q:120
C:Mike Dugger
S:THSP
R:jig
N:
Z:
K:A
"A"AFE FAd|cBA ~A3|afd "D"~f3|"A"ecA "E"~B3|
"A"AFE FAd|cBA ~A3|cde "D"~f3
|1 "E"ecB "A"~A3:|2 "E"ecB "A"~A2f||
"G"=ged ~B3|de=g ede|"A"aec ~A3|cea ece|
"G"=ged ~B3|de=g ede|"A"afd "D"~f3|"E"ecB "A"A2f|
"G"=ged ~B3|de=g ede|"A"aec Ace|aec Ace|
"G"=ged ~B3|de=g ede|"A"afd "D"~f3|"E"ecB "A"A2g|:
"A"a2e efe|"D"d2"A"c efe|"A"c2"E"B efe|"A"c2"E"B efg|
"A"a2e efe|"D"d2"A"c efe|"A"afd "D"~f3
|1 "E"ecB "A"A2g:|2 "E"ecB "A"A2B|]
